src/shared/assets/icons/ic-info.svg

<svg xmlns="http://www.w3.org/2000/svg" fill="none" viewBox="0 0 24 24"><path fill="currentColor" d="M7.5 6.5C7.5 8.981 9.519 11 12 11s4.5-2.019 4.5-4.5S14.481 2 12 2a4.505 4.505 0 0 0-4.5 4.5M20 21h1v-1c0-3.859-3.141-7-7-7h-4c-3.86 0-7 3.141-7 7v1z"/></svg>

<svg viewBox="0 0 24 24" fill="none" xmlns="http://www.w3.org/2000/svg">
<path d="M7.5 6.5C7.5 8.981 9.519 11 12 11C14.481 11 16.5 8.981 16.5 6.5C16.5 4.019 14.481 2 12 2C9.519 2 7.5 4.019 7.5 6.5ZM20 21H21V20C21 16.141 17.859 13 14 13H10C6.14 13 3 16.141 3 20V21H20Z" fill="currentColor"/>
</svg>
